outputs/icons/charts/chart_line_round.svg

<svg xmlns="http://www.w3.org/2000/svg" width="1200" height="1200" fill="none"><path fill="#000" d="M137.472 886.96c20.721 20.72 54.321 20.705 75.025-.03L475 623.99l162.51 162.505c20.34 20.345 53.605 19.365 72.72-2.13l358.58-403.3c17.515-19.696 16.635-49.63-2-68.266-20.245-20.244-53.35-19.278-72.38 2.113L675 673.99 510.38 509.365c-19.536-19.533-51.213-19.523-70.736.025l-302.197 302.6c-20.685 20.715-20.675 54.27.025 74.97"/></svg>

<svg width="1200" height="1200" viewBox="0 0 1200 1200" fill="none" xmlns="http://www.w3.org/2000/svg"><path d="M137.472 886.96C158.193 907.68 191.793 907.665 212.497 886.93L475 623.99L637.51 786.495C657.85 806.84 691.115 805.86 710.23 784.365L1068.81 381.065C1086.325 361.369 1085.445 331.435 1066.81 312.799C1046.565 292.555 1013.46 293.521 994.43 314.912L675 673.99L510.38 509.365C490.844 489.832 459.167 489.842 439.644 509.39L137.447 811.99C116.762 832.705 116.772 866.26 137.472 886.96Z" fill="black"/></svg>
